dist/svg/alarm-fill.svg

<svg xmlns="http://www.w3.org/2000/svg" viewBox="0 0 24 24"><path d="M5.9 3.259a2 2 0 0 1-.16.04c-.182.04-2.357 2.218-2.445 2.449-.213.557.321 1.127.91.971.153-.04.315-.184 1.288-1.152.612-.609 1.137-1.153 1.166-1.208.188-.356.048-.841-.294-1.016-.111-.056-.397-.108-.465-.084m12 0a2 2 0 0 1-.149.038c-.165.036-.377.245-.454.444a.76.76 0 0 0 .041.613c.031.058.557.604 1.169 1.213.973.968 1.135 1.112 1.288 1.152a.749.749 0 0 0 .924-.924c-.04-.153-.184-.315-1.152-1.288-.609-.612-1.152-1.136-1.207-1.165-.106-.056-.392-.107-.46-.083m-6.531 2.024A7.86 7.86 0 0 0 7.1 7c-.382.314-1.038.996-1.307 1.361-1.118 1.512-1.669 3.403-1.52 5.209.06.726.164 1.233.391 1.905a7.35 7.35 0 0 0 1.773 2.898c.688.706 1.238 1.115 2.079 1.543a7.68 7.68 0 0 0 5.959.42 7.36 7.36 0 0 0 2.88-1.755c.947-.915 1.574-1.897 1.979-3.101a7.58 7.58 0 0 0 .002-4.955 7.4 7.4 0 0 0-1.754-2.88c-.702-.724-1.295-1.159-2.162-1.587a7.5 7.5 0 0 0-2.869-.777c-.577-.044-.579-.044-1.182.002m.898 2.52c.16.06.331.231.417.417.069.149.074.297.075 2.09l.001 1.93 1.13.001c.622 0 1.201.017 1.287.037a.739.739 0 0 1 .348 1.246.84.84 0 0 1-.306.191c-.218.061-3.22.061-3.438 0a.82.82 0 0 1-.496-.496c-.03-.108-.044-.913-.044-2.499.001-2.197.005-2.35.075-2.504.171-.377.579-.554.951-.413" fill-rule="evenodd"/></svg>

<svg fill="none" xmlns="http://www.w3.org/2000/svg" viewBox="0 0 24 24"><path d="M5.900 3.259 C 5.878 3.267,5.806 3.285,5.740 3.299 C 5.558 3.339,3.383 5.517,3.295 5.748 C 3.082 6.305,3.616 6.875,4.205 6.719 C 4.358 6.679,4.520 6.535,5.493 5.567 C 6.105 4.958,6.630 4.414,6.659 4.359 C 6.847 4.003,6.707 3.518,6.365 3.343 C 6.254 3.287,5.968 3.235,5.900 3.259 M17.900 3.259 C 17.878 3.267,17.811 3.284,17.751 3.297 C 17.586 3.333,17.374 3.542,17.297 3.741 C 17.224 3.935,17.239 4.167,17.338 4.354 C 17.369 4.412,17.895 4.958,18.507 5.567 C 19.480 6.535,19.642 6.679,19.795 6.719 C 20.366 6.870,20.870 6.366,20.719 5.795 C 20.679 5.642,20.535 5.480,19.567 4.507 C 18.958 3.895,18.415 3.371,18.360 3.342 C 18.254 3.286,17.968 3.235,17.900 3.259 M11.369 5.283 C 9.848 5.400,8.286 6.028,7.100 7.000 C 6.718 7.314,6.062 7.996,5.793 8.361 C 4.675 9.873,4.124 11.764,4.273 13.570 C 4.333 14.296,4.437 14.803,4.664 15.475 C 5.046 16.608,5.601 17.515,6.437 18.373 C 7.125 19.079,7.675 19.488,8.516 19.916 C 10.357 20.854,12.493 21.004,14.475 20.336 C 15.599 19.957,16.496 19.410,17.355 18.581 C 18.302 17.666,18.929 16.684,19.334 15.480 C 19.890 13.830,19.891 12.171,19.336 10.525 C 18.958 9.403,18.401 8.489,17.582 7.645 C 16.880 6.921,16.287 6.486,15.420 6.058 C 14.505 5.606,13.601 5.361,12.551 5.281 C 11.974 5.237,11.972 5.237,11.369 5.283 M12.267 7.803 C 12.427 7.863,12.598 8.034,12.684 8.220 C 12.753 8.369,12.758 8.517,12.759 10.310 L 12.760 12.240 13.890 12.241 C 14.512 12.241,15.091 12.258,15.177 12.278 C 15.742 12.409,15.938 13.111,15.525 13.524 C 15.444 13.605,15.307 13.691,15.219 13.715 C 15.001 13.776,11.999 13.776,11.781 13.715 C 11.577 13.659,11.341 13.423,11.285 13.219 C 11.255 13.111,11.241 12.306,11.241 10.720 C 11.242 8.523,11.246 8.370,11.316 8.216 C 11.487 7.839,11.895 7.662,12.267 7.803 " stroke="none" fill-rule="evenodd" fill="currentColor"/></svg>
